src/lib/packages/icons/src/assets/line/user-edit.svg

<svg width="24" height="24" viewBox="0 0 24 24" fill="none" xmlns="http://www.w3.org/2000/svg">
<path d="M10.009 10.75C12.353 10.75 14.259 8.843 14.259 6.5C14.259 4.157 12.353 2.25 10.009 2.25C7.66503 2.25 5.75903 4.157 5.75903 6.5C5.75903 8.843 7.66503 10.75 10.009 10.75ZM10.009 3.75C11.526 3.75 12.759 4.983 12.759 6.5C12.759 8.017 11.526 9.25 10.009 9.25C8.49203 9.25 7.25903 8.017 7.25903 6.5C7.25903 4.983 8.49203 3.75 10.009 3.75ZM3.75 18.02C3.75 19.583 4.423 20.25 6 20.25H10C10.414 20.25 10.75 20.586 10.75 21C10.75 21.414 10.414 21.75 10 21.75H6C3.582 21.75 2.25 20.425 2.25 18.02C2.25 15.358 3.756 12.25 8 12.25H12C12.852 12.25 13.613 12.374 14.264 12.618C14.652 12.764 14.848 13.196 14.702 13.584C14.556 13.972 14.124 14.168 13.736 14.022C13.256 13.841 12.671 13.75 12 13.75H8C4.057 13.75 3.75 17.019 3.75 18.02ZM22.2371 13.876L21.123 12.7629C20.793 12.4319 20.353 12.25 19.886 12.25C19.885 12.25 19.885 12.25 19.884 12.25C19.415 12.25 18.976 12.434 18.647 12.765L12.469 18.9709C12.328 19.1119 12.25 19.302 12.25 19.5V22C12.25 22.414 12.586 22.75 13 22.75H15.5C15.698 22.75 15.8891 22.671 16.0291 22.532L22.233 16.355C22.566 16.025 22.75 15.585 22.75 15.116C22.751 14.647 22.5681 14.208 22.2371 13.876ZM15.1899 21.25H13.75V19.8101L17.8719 15.6689L19.33 17.1281L15.1899 21.25ZM21.176 15.291L20.394 16.0699L18.931 14.606L19.71 13.823C19.772 13.76 19.847 13.75 19.886 13.75C19.925 13.75 19.999 13.76 20.063 13.823L21.177 14.937C21.241 15 21.25 15.075 21.25 15.113C21.25 15.153 21.24 15.227 21.176 15.291Z" fill="currentColor"/>
</svg>

<svg xmlns="http://www.w3.org/2000/svg" width="24" height="24" fill="none"><path fill="currentColor" d="M10.009 10.75a4.255 4.255 0 0 0 4.25-4.25 4.255 4.255 0 0 0-4.25-4.25 4.255 4.255 0 0 0-4.25 4.25 4.255 4.255 0 0 0 4.25 4.25Zm0-7a2.752 2.752 0 0 1 2.75 2.75 2.752 2.752 0 0 1-2.75 2.75 2.752 2.752 0 0 1-2.75-2.75 2.752 2.752 0 0 1 2.75-2.75ZM3.75 18.02c0 1.563.673 2.23 2.25 2.23h4a.75.75 0 0 1 0 1.5H6c-2.418 0-3.75-1.325-3.75-3.73 0-2.662 1.506-5.77 5.75-5.77h4c.852 0 1.613.124 2.264.368a.75.75 0 1 1-.528 1.404c-.48-.181-1.065-.272-1.736-.272H8c-3.943 0-4.25 3.269-4.25 4.27Zm18.487-4.144-1.114-1.113a1.736 1.736 0 0 0-1.237-.513h-.002c-.469 0-.908.184-1.237.515l-6.178 6.206a.747.747 0 0 0-.219.529V22c0 .414.336.75.75.75h2.5c.198 0 .39-.079.53-.218l6.203-6.177c.333-.33.517-.77.517-1.239a1.739 1.739 0 0 0-.513-1.24ZM15.19 21.25h-1.44v-1.44l4.122-4.141 1.458 1.46-4.14 4.121Zm5.986-5.959-.782.779-1.463-1.464.779-.783a.247.247 0 0 1 .176-.073c.039 0 .113.01.177.073l1.114 1.114a.25.25 0 0 1-.001.354Z"/></svg>
